!!!!SEGMENT: pl-kk--kk-i-382--074_anonim--offertorium-nro-29.krn
!!!cenid: 18xx:1590
!!!COM: Anonim
!!!COM-rismID: pe30004985
!!!CDT:
!!!CNT:
!!!OTL: Offertorium Nro 29
!!!PDT:
!!!AGN: Sacred
!!!YEC: Copyright 2022 Narodowy Instytut Fryderyka Chopina (https://polishscores.org)
!!!YEM: License CC-BY-4.0 (https://creativecommons.org/licenses/by/4.0)
!!!SMS-siglum: PL-Kk
!!!SMS-shelfmark: Kk.I.382
!!!SMS-shelfwork: 074 W
!!!SMS-variant:
!!!SMS-altvar:
!!!NIFC-rismSourceID: 1001139027
!!!NIFC-rismChildID: 1001142418
!!!NIFC-islandoraID: pl-kk:6162
!!!URL-pdf-islandora: https://repozytorium.nifc.pl/islandora/object/pl-kk%3A6162/datastream/PDF/view
!!!URL-scan: https://polish.musicsources.pl/pl/lokalizacje/galeria/rekopisy/5994 @EN{Scan on Polish Music Sources Website} @PL{Skany w portalu Dziedzictwo Muzyki Polskiej w otwartym dostępie}
!!!IIIF:
!!!ONB-nifc: UWAGA: obsada: S (T 1), A (B 1), T 2, B 2; S (T 1): skan 0052; A (B 1): skan 0197-0198; T 2: skan 0124-0125; B 2: skan 0273
!!!AIN: 1 alto 1 bass 2 tenor
!!!key:
**kern	**text	**kern	**text	**kern	**text	**kern	**text
*part4	*	*part3	*	*part2	*	*part1	*
*staff4	*	*staff3	*	*staff2	*	*staff1	*
*Ibass	*	*Itenor	*	*Ialto	*	*Itenor	*
*I"Basso II	*	*I"Tenore II	*	*I"Alto vel Basso I	*	*I"Soprano vel Tenore I.	*
*I'B 2	*	*I'T 2	*	*I'A (B 1)	*	*I'S (T 1)	*
*clefF4	*	*clefC4	*	*clefC3	*	*clefC1	*
*k[b-e-]	*	*k[b-e-]	*	*k[b-e-]	*	*k[b-e-]	*
*B-:	*	*B-:	*	*B-:	*	*B-:	*
*M3/4	*	*M3/4	*	*M3/4	*	*M3/4	*
=1	=1	=1	=1	=1	=1	=1	=1
*2\right	*	*2\right	*	*2\right	*	*2\right	*
!LO:TX:t=P:problem=all\right&colon; global	!	!LO:TX:t=P:problem=all\right&colon; global	!	!LO:TX:t=P:problem=all\right&colon; global	!	!LO:TX:t=P:problem=all\right&colon; global	!
!LO:TX:a:t=Nro 29.	!	!LO:TX:a:t=Nro. 29.	!	!LO:TX:a:t=Nro 29.	!	!LO:TX:a:t=Nro 29.	!
!LO:TX:a:t=P:problem=napis "Nro 29." na pięciolinii przed kluczem	!	!LO:TX:a:t=P:problem=napis "Nro. 29." na pięciolinii przed kluczem	!	!LO:TX:a:t=P:problem=napis "Nro 29." na pięciolinii przed kluczem	!	!LO:TX:a:t=P:problem=napis "Nro 29." na pięciolinii przed kluczem	!
(>2.B-\	O-	[>2.B-\	O	(>2.d\	O-	(>2.b-\	O
=2	=2	=2	=2	=2	=2	=2	=2
2.F\)	.	4B-\]	.	2f\	.	2cc\)	.
.	.	4.A\	.	.	.	.	.
.	.	.	.	8f\L	.	8ff\L	.
.	.	8c\	.	8a\J)	.	8ee-\J	.
=3	=3	=3	=3	=3	=3	=3	=3
4G\	-sa-	(>8c\L	sa-	4g\	-sa-	(>8ee-\L	sa-
.	.	8B-\J)	.	.	.	8dd\J)	.
2G\	-crum	2B-\	-crum	2g\	-crum	2dd\	-crum
=4	=4	=4	=4	=4	=4	=4	=4
4E-\	con-	(>2e-\	con-	(>2.b-\	con-	(>2gg\	con-
4G\	.	.	.	.	.	.	.
4B-\	.	8d\L	.	.	.	8ff\L	.
.	.	8e-\J)	.	.	.	8gg\J	.
=5	=5	=5	=5	=5	=5	=5	=5
2F\	.	4d\	.	4b-\	.	4ff\	.
.	.	4c\	.	4a\	.	4ee-\	.
!	!	!	!	!	!	!LO:TX:i:b:t=V&colon; S&colon;	!
!	!	!	!	!	!	!LO:TX:a:t=P:problem=napis na pięciolinii za kreską	!
4G\	.	4B-\	.	4b-\)	.	4dd\)	.
!	!	!	!	!	!	!LO:PB:g=original	!
=6	=6	=6	=6	=6	=6	=6	=6
2F\	-vi-	4B-\	-vi-	2f\	-vi-	(>4dd\	-vi-
.	.	(>8d\L	.	.	.	8ff\L	.
.	.	8c\J)	.	.	.	8ee-\J)	.
4F\	-vi-	(>8B-\L	-vi-	(>8f\L	-vi-	(>8dd\L	-vi-
.	.	8A\J)	.	8e-\J)	.	8cc\J)	.
!	!	!LO:LB:g=original	!	!	!	!	!
=7	=7	=7	=7	=7	=7	=7	=7
2.BB-/	-um,	2.B-\	-um	2.d\	-um	2.b-\	-um
!LO:LB:g=original	!	!	!	!LO:LB:g=original	!	!	!
=8	=8	=8	=8	=8	=8	=8	=8
!	!	!LO:TX:a:t=1.	!	!LO:TX:a:t=1.	!	!LO:TX:a:t=1.	!
(>4B-\	in	2.r	.	2.r	.	2.r	.
4A\)	.	.	.	.	.	.	.
4G\	quo	.	.	.	.	.	.
=9	=9	=9	=9	=9	=9	=9	=9
2F\	in	(>4c\	in	(>4a\	in	(>4ee-\	in
.	.	4B-\)	.	4b-\)	.	4dd\)	.
4E-\	quo	4A\	quo	4f\	quo	4cc\	quo
=10	=10	=10	=10	=10	=10	=10	=10
2D\	Chri-	2B-\	Chri-	2f\	Chri-	2ff\	Chri-
4E-\	-stus	4B-\	-stus	(>8e-\L	-stus	(>8gg\L	-stus
.	.	.	.	8g\J)	.	8ee-\J)	.
=11	=11	=11	=11	=11	=11	=11	=11
8.F\	su-	8B-\	su-	8.f\	su-	8.dd\	su-
.	.	8A\	-mi-	.	.	.	.
16F\	-mi-	.	.	16f\	-mi-	16cc\	-mi-
2F\	-tur	2A\	-tur	2f;>\	-tur.	2cc\	-tur
=12	=12	=12	=12	=12	=12	=12	=12
*^	*	*	*	*	*	*	*
!	!	!	!	!	!LO:TX:a:t=3.	!	!LO:TX:a:t=3.	!
!	!LO:N:vis=1	!	!	!	!LO:N:vis=0	!	!LO:N:vis=0	!
2c\	2.rGG	re	(>2c\	re-	1.r	.	1.r	.
8d\L	.	.	8d\L	.	.	.	.	.
8B-\J	.	.	8B-\J)	.	.	.	.	.
=13	=13	=13	=13	=13	=13	=13	=13	=13
!	!LO:N:vis=1	!	!	!	!	!	!	!
4.A\	2.rGG	.	4.A\	.	.	.	.	.
16B-\LL	.	.	16B-\LL	.	.	.	.	.
16A\JJ	.	.	16A\JJ	.	.	.	.	.
16c\LL	.	.	16c\LL	.	.	.	.	.
16B-\	.	.	16B-\	.	.	.	.	.
16A\	.	.	16A\	.	.	.	.	.
16G\JJ	.	.	16G\JJ	.	.	.	.	.
*v	*v	*	*	*	*	*	*	*
!LO:PB:g=original	!	!LO:LB:g=original	!	!	!	!	!
=14	=14	=14	=14	=14	=14	=14	=14
!	!	!	!	!LO:TX:b:i:t=V&colon; S&colon;	!	!	!
!	!	!	!	!LO:TX:a:t=P:problem=napis na pięciolinii za kreską	!	!	!
4r	.	8.G/	-co-	2.r	.	2.r	.
.	.	16F/	-li-	.	.	.	.
[>2F\	me-	2F/	-mur	.	.	.	.
!	!	!	!	!LO:PB:g=original	!	!LO:LB:g=original	!
=15	=15	=15	=15	=15	=15	=15	=15
2.F\]	.	(>2d\	me-	2.f\	me-	(>2ff\	me-
.	.	8c\L	.	.	.	8een\L	.
.	.	8B-\J)	.	.	.	8dd\J)	.
=16	=16	=16	=16	=16	=16	=16	=16
8.F\	-mo-	8.B-\	-mo-	8.f\	-mo-	8.dd\	-mo-
16F\	-ri-	16A\	-ri-	16f\	-ri-	16cc\	-ri-
2F\	-am.	2A\	-am	2f\	-am	2cc\	-am
=17	=17	=17	=17	=17	=17	=17	=17
!LO:TX:a:t=1.	!	!	!	!LO:TX:a:t=1.	!	!LO:TX:a:t=1.	!
2.r	.	4B-\	pa-	2.r	.	2.r	.
.	.	16qqc/	.	.	.	.	.
.	.	(>16B-\LL	.	.	.	.	.
.	.	16A\	.	.	.	.	.
.	.	16B-\	.	.	.	.	.
.	.	16c\JJ)	.	.	.	.	.
.	.	8d\	.	.	.	.	.
.	.	8d\	-si-	.	.	.	.
=18	=18	=18	=18	=18	=18	=18	=18
8.C/	pa-	(>4c\	-o-	8.g\	pa-	8.een\	pas-
16C/	-si-	.	.	16g\	-si-	16ee\	-si-
4C/	-o-	4B-\)	.	4g\	-o-	4ee\	-o-
4D/	-nis	4A\	-nis	4f\	-nis	4ff\	-nis
!	!	!LO:LB:g=original	!	!	!	!	!
=19	=19	=19	=19	=19	=19	=19	=19
4BB-/	e-	(>8B-\L	e-	(>2f\	e-	(>8dd\L	e-
.	.	8A\J)	.	.	.	8cc\J	.
2C/	.	4.A\	.	.	.	4.cc\	.
.	.	.	.	8f\L	.	.	.
.	.	8G\	.	8en\J)	.	8b-\)	.
=20	=20	=20	=20	=20	=20	=20	=20
4F\	-jus	4F/	-jus	4f\	-jus	4a\	-jus
4r	.	4A\	pa-	4f\	pa-	4cc\	pa-
4r	.	4c\	-si-	4f\	-si-	4ee-X\	-si-
!LO:LB:g=original	!	!	!	!	!	!	!
=21	=21	=21	=21	=21	=21	=21	=21
4r	.	4c\	-o-	(>2.f\	-o-	(>2.dd\	-o-
(>8B-\L	pa-	2B-\	.	.	.	.	.
8A\J)	.	.	.	.	.	.	.
(>8G\L	-si-	.	.	.	.	.	.
8F\J)	.	.	.	.	.	.	.
!	!	!	!	!LO:LB:g=original	!	!	!
=22	=22	=22	=22	=22	=22	=22	=22
(>8En\L	-o-	4B-\	.	4g\)	.	2.cc\)	.
8C\	.	.	.	.	.	.	.
8F\	.	2A\	.	2f\	.	.	.
8G\J)	.	.	.	.	.	.	.
(>8A\L	-nis	.	.	.	.	.	.
8F\J)	.	.	.	.	.	.	.
!	!	!	!	!	!	!LO:LB:g=original	!
=23	=23	=23	=23	=23	=23	=23	=23
!	!	!	!	!	!	!LO:TX:a:t=P:problem=zakończenie łuku	!
8D\L	e-	4A\	.	4f\	.	2b-\	.
8F\	.	.	.	.	.	.	.
8En\	.	4G/	.	4g\	.	.	.
8G\	.	.	.	.	.	.	.
8C\	.	4G/	-nis	(>8en\L	-nis	4b-\	-nis
8E\J	.	.	.	8c\J)	.	.	.
=24	=24	=24	=24	=24	=24	=24	=24
4F\	-jus	(<8F/L	e-	(>8c\L	e-	8a\L	e-
.	.	8G/	.	8f\J	.	8b-\	.
4r	.	8A/	.	2f\)	.	8cc\	.
.	.	8B-/	.	.	.	8dd\	.
4r	.	8c/	.	.	.	8een\	.
.	.	8d/J)	.	.	.	8ff\J	.
=25	=25	=25	=25	=25	=25	=25	=25
(<4BB-/	e-	(>16c\LL	.	4f\	.	16een\LL	.
.	.	16B-\	.	.	.	16dd\	.
.	.	16A\	.	.	.	16cc\	.
.	.	16G\JJ)	.	.	.	16b-\JJ	.
2C/)	.	4F/	.	2c\	.	4a\	.
.	.	4En/	.	.	.	4g\	.
!	!	!LO:LB:g=original	!	!	!	!	!
=26	=26	=26	=26	=26	=26	=26	=26
4F\	-jus	4F/	-jus	4f\	-jus	4f/	-jus
4A\	mens	4A\	mens	4a\	mens	4a\	mens
4c\	im-	4c\	im-	4cc\	im-	4cc\	im-
=27	=27	=27	=27	=27	=27	=27	=27
2D\	-ple-	2A\	-ple-	2f\	-ple-	2ff\	-ple-
4BB-/	-tur	4B-\	-tur	(>8f\L	-tur	(>8dd\L	-tur
.	.	.	.	8d\J)	.	8gg\J)	.
!LO:LB:g=original	!	!	!	!	!	!	!
=28	=28	=28	=28	=28	=28	=28	=28
2C/	gra-	(>4A\	gra-	(>4f\	gra-	(>4ff\	gra-
.	.	4.G/)	.	4.b-\)	.	4.een\)	.
4C/	-ti-	.	.	.	.	.	.
.	.	8G/	-ti-	8a\	-ti-	8ee\	-ti-
!	!	!	!	!LO:LB:g=original	!	!	!
=29	=29	=29	=29	=29	=29	=29	=29
2.F;>\	-a,	2.F;>/	-a.	2.a;>\	-a	2.ff;>\	-a,
!	!	!	!	!	!	!LO:LB:g=original	!
==30	==30	=30||	=30||	=30	=30	=30||	=30||
*^	*	*	*	*	*	*	*
!	!LO:N:vis=1	!	!LO:TX:a:t=1.	!	!	!	!	!
4C/	2.rGG	et	2.r	.	(>4c\	et	(>4cc\	et
4F\	.	.	.	.	4f\)	.	4ff\)	.
4F\	.	fu	.	.	4f\	fu-	4ff\	fu-
*v	*v	*	*	*	*	*	*	*
=31	=31	=31	=31	=31	=31	=31	=31
4r	.	4r	.	4f\	-tu-	(>8ff\L	-tu-
.	.	.	.	.	.	8ee-X\J)	.
4G\	et	4B-\	et	2b-\	-re	2ee-\	-re
4G\	fu-	4B-\	fu-	.	.	.	.
=32	=32	=32	=32	=32	=32	=32	=32
2F#X\	-tu-	2A\	-tu-	4cc\	fu-	4ee-\	fu-
.	.	.	.	4d\	-tu-	(>8dd\L	-tu-
.	.	.	.	.	.	8ee-\J)	.
4F#\	-re	4A\	-re	4d\	-re	(>8dd\L	-re
.	.	.	.	.	.	8cc\J)	.
!	!	!LO:LB:g=original	!	!	!	!	!
=33	=33	=33	=33	=33	=33	=33	=33
8.G\	glo-	8.A/	glo-	8.d\	glo-	8.cc\	glo-
16G\	-ri-	16G/	-ri-	16d\	-ri-	16b-\	-ri-
8G\	-e	8G/	-e	8d\	-e	4b-\	-e
8B-\	fu-	8d\	fu-	8d\	fu-	.	.
8A\	-tu-	8c\	-tu-	8d\	-tu-	4r	.
8G\	-re	8B-\	-re	8d\	-re	.	.
!LO:LB:g=original	!	!	!	!LO:LB:g=original	!	!	!
=34	=34	=34	=34	=34	=34	=34	=34
2.Fn\	glo-	4.A\	glo-	(>2.f\	glo-	2.ee-\	glo-
.	.	8B-\	.	.	.	.	.
.	.	(>16d\LL	.	.	.	.	.
.	.	16c\	.	.	.	.	.
.	.	16B-\	.	.	.	.	.
.	.	16A\JJ)	.	.	.	.	.
=35	=35	=35	=35	=35	=35	=35	=35
4G\	.	4.B-\	.	(>2.b-\)	.	4.dd\	.
8F\L	.	.	.	.	.	.	.
8E-\	.	8c\	.	.	.	8ee-\	.
8D\	.	(>16e-\LL	.	.	.	16gg\LL	.
.	.	16d\	.	.	.	16ff\	.
8E-\J	.	16c\	.	.	.	16ee-\	.
.	.	16B-\JJ)	.	.	.	16dd\JJ	.
=36	=36	=36	=36	=36	=36	=36	=36
4.F\	.	8.B-\	.	8.f\)	.	8.dd\	.
.	.	16A\	-ri-	16f\	-ri-	16cc\	-ri-
.	.	2A\	-e,	2f\	-e	2cc\	-e
8E-\	.	.	.	.	.	.	.
(>8D\L	-ri-	.	.	.	.	.	.
8C\J)	.	.	.	.	.	.	.
!	!	!LO:LB:g=original	!	!	!	!LO:LB:g=original	!
=37	=37	=37	=37	=37	=37	=37	=37
!	!	!LO:TX:a:t=2	!	!LO:TX:a:t=2	!	!	!
!	!	!LO:N:vis=0	!	!LO:N:vis=0	!	!	!
4BB-/	-e,	1.r	.	1.r	.	4.b-\	no-
4r	.	.	.	.	.	.	.
.	.	.	.	.	.	8cc\L	.
4r	.	.	.	.	.	8b-\	.
.	.	.	.	.	.	8a\J	.
=38	=38	=38	=38	=38	=38	=38	=38
!LO:TX:b:t=3.	!	!	!	!	!	!	!
!LO:N:vis=0	!	!	!	!	!	!	!
1.r	.	.	.	.	.	8g\L	.
.	.	.	.	.	.	8f\	.
.	.	.	.	.	.	8g\	.
.	.	.	.	.	.	8a\J	.
.	.	.	.	.	.	(>8b-\L	-bis
.	.	.	.	.	.	8cc\J)	.
=39	=39	=39	=39	=39	=39	=39	=39
.	.	4.B-\	no-	[>2.f\	no-	4.dd\	no-
.	.	8c\	.	.	.	8ee-\L	.
.	.	8B-\L	.	.	.	8dd\	.
.	.	8A\J	.	.	.	8cc\J	.
=40	=40	=40	=40	=40	=40	=40	=40
2.r	.	(<8G/L	.	2f\]	.	8b-\L	.
.	.	8F/	.	.	.	8a\	.
.	.	8G/	.	.	.	8b-\	.
.	.	8A/J)	.	.	.	8cc\J	.
.	.	(>8B-\L	-bis	4f\	-bis	(>8dd\L	-bis
.	.	8c\J)	.	.	.	8ee-\J)	.
=41	=41	=41	=41	=41	=41	=41	=41
4.B-\	no-	4.d\	no-	[>2.f\	no-	[>2.ff\	no-
8c\L	.	8e-\L	.	.	.	.	.
8B-\	.	8d\	.	.	.	.	.
8A\J	.	8c\J	.	.	.	.	.
=42	=42	=42	=42	=42	=42	=42	=42
8G\L	.	8B-/L	.	2f\]	.	2ff\]	.
8F\	.	8A/	.	.	.	.	.
8E-\	.	8G/	.	.	.	.	.
8D\J	.	8F/J	.	.	.	.	.
(<8C/L	-bis	(<8E-/L	-bis,	4f\	-bis	4ff\	-bis
!	!	!LO:TX:b:i:t=V&colon; S&colon;	!	!	!	!	!
!	!	!LO:TX:a:t=P:problem=napis na pięciolinii za kreską	!	!	!	!	!
8BB-/J)	.	8D/J)	.	.	.	.	.
!LO:LB:g=original	!	!LO:PB:g=original	!	!	!	!	!
=43	=43	=43	=43	=43	=43	=43	=43
4AA/	pi-	4C/	pi-	4f\	pi-	4ff\	pi-
4AA/	-gnus	4c\	-gnus	4f\	-gnus	4ff\	-gnus
4AA/	da-	4c\	da-	4f\	da-	(>16ff\LL	da-
.	.	.	.	.	.	16ee-\	.
.	.	.	.	.	.	16dd\)	.
.	.	.	.	.	.	16ee-\JJ	.
!	!	!	!	!LO:LB:g=original	!	!LO:LB:g=original	!
=44	=44	=44	=44	=44	=44	=44	=44
4BB-/	-tur	4B-\	-tur	4f\	-tur	4dd\	-tur
.	.	16qqc/	.	.	.	.	.
4r	.	16B-\LL	no-	4r	.	4r	.
.	.	16A\	.	.	.	.	.
.	.	16B-\	.	.	.	.	.
.	.	16c\JJ	.	.	.	.	.
.	.	16qqe-/	.	.	.	.	.
4r	.	16d\LL	.	4r	.	4r	.
.	.	16c\	.	.	.	.	.
.	.	16d\	.	.	.	.	.
.	.	16e-\JJ	.	.	.	.	.
=45	=45	=45	=45	=45	=45	=45	=45
!LO:TX:b:t=1.	!	!	!	!LO:TX:a:t=1.	!	!LO:TX:a:t=1.	!
.	.	8qe-/	.	.	.	.	.
2.r	.	4f\	.	2.r	.	2.r	.
.	.	8e-\L	.	.	.	.	.
.	.	8d\J	.	.	.	.	.
.	.	(8c\L	-bis	.	.	.	.
.	.	8B-\J)	.	.	.	.	.
=46	=46	=46	=46	=46	=46	=46	=46
8BB-/	pi-	2.A-X/	da-	8f\	pi-	8dd\	pi-
8BB-/	-gnus	.	.	8f\	-gnus	8dd\	-gnus
2BB-/	da-	.	.	2f\	da-	2dd\	da-
=47	=47	=47	=47	=47	=47	=47	=47
4E-\	-tur	4G/	-tur	4e-\	-tur	2ee-\	-tur
(>8G\L	no-	4r	.	4r	.	.	.
8F\J)	.	.	.	.	.	.	.
(>8E-\L	-bis	4r	.	4r	.	4r	.
8D\J)	.	.	.	.	.	.	.
=48	=48	=48	=48	=48	=48	=48	=48
2C/	pi-	2B-\	pi-	2g\	pi-	2een\	pi-
4C/	-gnus	4B-\	-gnus	4en\	-gnus	4gg\	-gnus
!LO:LB:g=original	!	!LO:LB:g=original	!	!	!	!	!
=49	=49	=49	=49	=49	=49	=49	=49
2.F\	da-	(>2An\	da-	2.f\	da-	(>2cc\	da-
.	.	8B-\L	.	.	.	8dd\L	.
.	.	8A\J)	.	.	.	8cc\J)	.
=50	=50	=50	=50	=50	=50	=50	=50
2.F;<\	-tur	2.A;>\	-tur	2.f;>\	-tur	2.cc;>\	-tur
==51	==51	=51||	=51||	=51	=51	=51	=51
*^	*	*	*	*	*	*	*
!	!LO:N:vis=1	!	!LO:TX:b:t=1.	!	!LO:TX:a:t=1.	!	!	!
4G\	2.rGG	al-	2.r	.	2.r	.	4gg\	al-
(>8F\L	.	-le-	.	.	.	.	(>8ff\L	-le-
8E-\J)	.	.	.	.	.	.	8ee-\	.
(>8D\L	.	-lu	.	.	.	.	8dd\	.
8C\J)	.	.	.	.	.	.	8cc\J)	.
*v	*v	*	*	*	*	*	*	*
!	!	!	!	!LO:LB:g=original	!	!LO:LB:g=original	!
=52	=52	=52	=52	=52||	=52||	=52	=52
(>4F\	-al-	(>2.F/	al-	(>2c\	al-	(>4b-\	-lu-
4E-\	.	.	.	.	.	4a\)	.
4D\)	.	.	.	4B-\)	.	4b-\	-ja
=53	=53	=53	=53	=53	=53	=53	=53
4E-\	-le-	4e-\)	.	2b-\	.	4gg\	al-
2F\	-lu-	4.d\	-le-	.	.	4.ff\	-le-
.	.	.	.	8b-\	-le-	.	.
.	.	8c\	-lu-	8a\	-lu-	8ee-\	-lu-
=54	=54	=54	=54	=54	=54	=54	=54
2.G\	-ja	2.B-\	-ja	2.b-\	-ja	2.dd\	-ja
=55	=55	=55	=55	=55	=55	=55	=55
!	!	!LO:TX:b:t=3.	!	!LO:TX:a:t=3.	!	!LO:TX:a:t=3.	!
!	!	!LO:N:vis=0	!	!LO:N:vis=0	!	!LO:N:vis=0	!
4E-\	al-	1.r	.	1.r	.	1.r	.
4G\	.	.	.	.	.	.	.
4B-\	.	.	.	.	.	.	.
=56	=56	=56	=56	=56	=56	=56	=56
2.e-\	-le-	.	.	.	.	.	.
=57	=57	=57	=57	=57	=57	=57	=57
4.e-\	.	2.r	.	2.r	.	2.r	.
8B-\	.	.	.	.	.	.	.
(>16A\LL	-lu-	.	.	.	.	.	.
16G\JJ)	.	.	.	.	.	.	.
(>16F\LL	-ja	.	.	.	.	.	.
16E-\JJ)	.	.	.	.	.	.	.
!LO:LB:g=original	!	!	!	!	!	!	!
=58	=58	=58	=58	=58	=58	=58	=58
[>2.BB-/	al-	2.B-\	al-	(>2f\	al-	2.dd\	al-
.	.	.	.	4b-\)	.	.	.
=59	=59	=59	=59	=59	=59	=59	=59
2.BB-/]	.	2c\	-le-	(>2.a\	-le-	2.ee-\	-le-
.	.	4c\	-lu-	.	.	.	.
!	!	!LO:LB:g=original	!	!	!	!	!
=60	=60	=60	=60	=60	=60	=60	=60
4.BB-/	-le-	4.d\	-ia	2a-X\)	.	4.ff\	-lu-
8B-\	-lu-	8B-\	al-	.	.	8dd\L	.
4B-\	.	8c\	-le-	4a-\	-lu-	8ee-\	.
.	.	8d\	-lu-	.	.	8ff\J	.
=61	=61	=61	=61	=61	=61	=61	=61
!	!	!LO:N:is=2.	!	!	!	!	!
2E-;>\	-ja	2e-;>\	-ja	2g;>\	-ja	2gg;>\	-ja
4E-\	al-	(>8c\L	al-	4g\	al-	(>8ee-\L	al-
.	.	16e-\L	.	.	.	16ff\L	.
.	.	16c\JJ)	.	.	.	16ee-\JJ)	.
!	!	!	!	!LO:LB:g=original	!	!LO:LB:g=original	!
=62	=62	=62	=62	=62	=62	=62	=62
2.F\	-le-	2.B-\	-le-	[>2.f\	-le-	(>2.dd\	-le-
=63	=63	=63	=63	=63	=63	=63	=63
2.F\	-lu-	2.A\	-lu-	2f\]	.	2cc\)	.
.	.	.	.	4e-X\	-lu-	4cc\	-lu-
=64	=64	=64	=64	=64	=64	=64	=64
2.BB-/	-ja.	2.B-\	-ja.	2.d\	-ja.	2.b-\	-ja.
==	==	==	==	==	==	==	==
*-	*-	*-	*-	*-	*-	*-	*-
!!!system-decoration: [(s1,s2,s3,s4)]
!!!RDF**kern: > = above
!!!RDF**kern: < = below
!!!EED: Mateusz Mrugas
!!!EEV: 2021-02-12
!!!ENC: Berenika Jozajtis
!!!END: 2021-02-01
